X: 9169
T:Schottisch  Fleuret
C:traditionell
A:France
Z:abc transcription Simon Wascher
N:please mail errors to: simon.wascher@chello.at
M:2/4
L:1/16
K:G
d2B2 g2fe|d2B2d4|c2A2 f3e|dcedB4|
d2B2 g2fe|d2B2d4|c2A2 f3e|dfafg4:|
|:dBdg b2a2|cAcf a2g2|dBdg fgfe|dcAcB4|
dBdg b2a2|cAcf a2g2|dBdg f3e|cfafg4:|
